Adwaita++/mimetypes/symbolic/x-office-spreadsheet-symbolic.svg

<svg height="16" width="16" xmlns="http://www.w3.org/2000/svg">
  <g fill="#474747">
    <path d="m3 1a1 1 0 0 0 -1 1v13a1 1 0 0 0 1 1h10a1 1 0 0 0 1-1v-9.5a1 1 0 0 0 -.293-.707l-3.5-3.5a1 1 0 0 0 -.707-.293zm1 2h5.086l2.914 2.914v8.086h-8z" fill-rule="evenodd"/>
    <path d="m9 2v4h4z" fill-rule="evenodd"/>
    <path d="m4.986 3.986h1v1h-1zm2 0h1v1h-1zm-2 2h1v1h-1zm2 0h1v1h-1zm-2 6h1v1h-1zm2 0h1v1h-1zm2 0h1v1h-1zm-4-.989h6v-1.011l-1.469-2.552-1.531 2.047-1.469-1.061-1.531 1.566z"/>
  </g>
</svg>

<svg xmlns="http://www.w3.org/2000/svg" width="16" height="16">
    <g fill="#474747">
        <path d="M3 1a1 1 0 0 0-1 1v13a1 1 0 0 0 1 1h10a1 1 0 0 0 1-1V5.5a1 1 0 0 0-.293-.707l-3.5-3.5A1 1 0 0 0 9.5 1zm1 2h5.086L12 5.914V14H4z" style="line-height:normal;font-variant-ligatures:normal;font-variant-position:normal;font-variant-caps:normal;font-variant-numeric:normal;font-variant-alternates:normal;font-feature-settings:normal;text-indent:0;text-align:start;text-decoration-line:none;text-decoration-style:solid;text-decoration-color:#000;text-transform:none;text-orientation:mixed;shape-padding:0;isolation:auto;mix-blend-mode:normal" color="#000" font-weight="400" font-family="sans-serif" white-space="normal" overflow="visible" fill-rule="evenodd"/>
        <path d="M9 2v4h4z" fill-rule="evenodd"/>
        <path d="M4.986 3.986h1v1h-1zM6.986 3.986h1v1h-1zM4.986 5.986h1v1h-1zM6.986 5.986h1v1h-1zM4.986 11.986h1v1h-1zM6.986 11.986h1v1h-1zM8.986 11.986h1v1h-1zM4.986 10.997h6V9.986L9.517 7.434 7.986 9.481 6.517 8.42 4.986 9.986z" style="marker:none" color="#000" overflow="visible"/>
    </g>
</svg>
